X:723
T:
N:Allemande.
S:Ur en gammal handskriven »dansbok», tillhörande Gotlands fornsal.
O:Gotland
Q:"Långsamt valstempo."
R:figurdans
M:6/8
L:1/8
K:F
A2B A2f|gfg a2f|c2d c2f|gfg f2z::
gg/g/g gfg|aa/a/a afa|b2a b2a|gfg f2z::
cde fga|b2g a2f|cde fga|b2g f2z:|

